X:75
T:Good-Ole-Boy's Reel
R:reel
C:Bruce Osborne - 2003
Z:abc by bosborne@kos.net
M:2/4
L:1/8
K:D
F/G/|A/d/c/d/ B/A/F/B/|A/d/c/d/ f/d/f/a/|g/f/e/d/ c/d/c/B/|A/B/A/G/ FF/G/|\
A/d/c/d/ B/A/F/B/|A/d/c/d/ f/d/c/d/|g/f/e/d/ c/A/B/c/|d/B/A/F/ D:|
|:d/e/|f/d/c/d/ f/d/f/b/|a/f/d/B/ A/F/G/F/|E/D/E/F/ G/B/A/E/|D/C/D/E/ Fd/e/|\
f/d/c/d/ f/d/f/b/|a/f/d/B/ A/F/G/F/|E/D/E/F/ G/B/A/G/|F/D/E/C/ D:|
